!!!SOCIAL_FUNCTION:	love songs
!!!PDT:	1909
!!!OTL: No_133.krn
!!!REG: Great_Lakes
!!!LANG: Non-Tone
!!!LING_GROUP: Algonquin
**kern
*staff1
*clefG2
*k[f#c#g#]
*M3/4
16r
16cc#\LK
8.ee\
16ee\Jk
=1
4.cc#\
8b#\
8cc#\L
8bn\J
=2
4..a/
16ee\
8.cc#\L
16cc#\Jk
=3
4.b\
ddq/
8a/
8b/L
8a/J
=4
4.f#/
8a/
8cc#\L
8cc#\J
=5||
*M4/4
4f#/
cc#q/
8f#/L
[8e/J
4e/]
cc#q/
16f#/LL
16g#/
16f#/
32.e/L
64f#/JJJk
=6||
*M3/4
4.c#/
8B/
8c#/L
8B/J
=7
2A/
8c#/L
16a/L
32d/L
32c#/JJJ
=8
4.B/
8A/
8B/L
8A/J
=9||
*M4/4
2.F#/
16cc#\LK
8ee\
16ee\Jk
=10||
*M3/4
4.cc#\
8cc#\
8.cc#\L
16b\Jk
=11||
*M4/4
2a/
cc#;q/
4ff#\
4cc#;\
=12||
*M3/4
4.b;\
8a/
16b\LL
32cc#\L
32b\J
16a\
32b\L
32a\JJJ
=13
4.f#/
8a/
8cc#\L
16cc#\L
32ee#\L
32ff#\JJJ
=14||
*M2/4
8.f#\L
(32dd\LL
32cc#\JJJ)
4f#/
=15||
*M3/4
4e;/
8.a/L
16cc#/Jk
8.f#/L
16a/Jk
=16
4.c#/
8B/
8c#/L
8B/J
=17
2A/
4f#/
=18
cc#q/
4.B/
8A/
8B/L
8A/J
=19
2F#/
8cc#`\
8r
*-
